Pods/ProtonCore-UIFoundations/libraries/UIFoundations/Sources/Assets.xcassets/Images/IconSet/ic-question-circle.imageset/ic-question-circle.svg

<svg width="24" height="24" viewBox="0 0 24 24" fill="none" xmlns="http://www.w3.org/2000/svg">
<path fill-rule="evenodd" clip-rule="evenodd" d="M12 21C16.9706 21 21 16.9706 21 12C21 7.02944 16.9706 3 12 3C7.02944 3 3 7.02944 3 12C3 16.9706 7.02944 21 12 21ZM12 22.5C17.799 22.5 22.5 17.799 22.5 12C22.5 6.20101 17.799 1.5 12 1.5C6.20101 1.5 1.5 6.20101 1.5 12C1.5 17.799 6.20101 22.5 12 22.5ZM11.25 17.25C11.25 16.8358 11.5858 16.5 12 16.5H12.0146C12.4289 16.5 12.7646 16.8358 12.7646 17.25C12.7646 17.6642 12.4289 18 12.0146 18H12C11.5858 18 11.25 17.6642 11.25 17.25ZM9.75 9.97266C9.75 8.73002 10.7574 7.72266 12 7.72266H12.2222C13.3421 7.72266 14.25 8.63052 14.25 9.75043C14.25 10.1264 14.073 10.4804 13.7722 10.706L12.75 11.4727C11.8057 12.1809 11.25 13.2923 11.25 14.4727C11.25 14.8869 11.5858 15.2227 12 15.2227C12.4142 15.2227 12.75 14.8869 12.75 14.4727C12.75 13.7645 13.0834 13.0976 13.65 12.6727L14.6722 11.906C15.3507 11.3971 15.75 10.5985 15.75 9.75043C15.75 7.8021 14.1706 6.22266 12.2222 6.22266H12C9.92893 6.22266 8.25 7.90159 8.25 9.97266C8.25 10.3869 8.58579 10.7227 9 10.7227C9.41421 10.7227 9.75 10.3869 9.75 9.97266Z" fill="#0C0C14"/>
</svg>

<svg xmlns="http://www.w3.org/2000/svg" width="24" height="24" viewBox="0 0 24 24">
  <g class="ic-question-circle">
    <path fill-rule="evenodd" d="M12 21a9 9 0 1 0 0-18 9 9 0 0 0 0 18Zm0 1.5c5.799 0 10.5-4.701 10.5-10.5S17.799 1.5 12 1.5 1.5 6.201 1.5 12 6.201 22.5 12 22.5Zm-.75-5.25a.75.75 0 0 1 .75-.75h.015a.75.75 0 1 1 0 1.5H12a.75.75 0 0 1-.75-.75Zm-1.5-7.277A2.25 2.25 0 0 1 12 7.723h.222c1.12 0 2.028.908 2.028 2.027 0 .376-.177.73-.478.956l-1.022.767a3.75 3.75 0 0 0-1.5 3 .75.75 0 0 0 1.5 0c0-.709.333-1.375.9-1.8l1.022-.767A2.695 2.695 0 0 0 15.75 9.75a3.528 3.528 0 0 0-3.528-3.527H12a3.75 3.75 0 0 0-3.75 3.75.75.75 0 1 0 1.5 0Z" class="Icon"/>
  </g>
</svg>
